icons/fill-new-food-fruit-apple.svg

<svg xmlns="http://www.w3.org/2000/svg" width="32px" height="32px" viewBox="0 0 32 32" version="1.1">
    <title>fill-new-food-fruit-apple</title>
    <g id="fill-new-food-fruit-apple" stroke-width="1" fill-rule="evenodd">
        <path d="M19.2425356,2.0298575 C19.7783305,2.16380623 20.1040912,2.70674072 19.9701425,3.24253563 C19.739866,4.16364171 19.2520707,5.30609224 18.6179893,6.47534117 C19.2960045,6.21114375 20.1868585,6 21.5,6 C25,6 29,9 29,16 C29,23 23.5,30 20.5,30 C17.5,30 17.5,29 16,29 C14.5,29 14.5,30 11.5,30 C8.5,30 3,23 3,16 C3,9 8,6 11,6 C13.7665025,6 14.4070227,7.27558931 15.6662771,7.47415395 C16.7788068,5.84545702 17.7182147,4.00403548 18.0298575,2.75746437 C18.1638062,2.22166947 18.7067407,1.89590877 19.2425356,2.0298575 Z" id="&#36335;&#24452;" />
    </g>
</svg>

<svg xmlns="http://www.w3.org/2000/svg" viewBox="0 0 32 32"><path fill="currentColor" d="M19.243 2.03a1 1 0 0 1 .727 1.213c-.23.92-.718 2.063-1.352 3.232C19.296 6.211 20.187 6 21.5 6 25 6 29 9 29 16s-5.5 14-8.5 14-3-1-4.5-1-1.5 1-4.5 1S3 23 3 16 8 6 11 6c2.767 0 3.407 1.276 4.666 1.474 1.113-1.629 2.052-3.47 2.364-4.717a1 1 0 0 1 1.213-.727"/></svg>
